icons/ArrowUpFromLine.svg

<svg width="24" height="24" viewBox="0 0 24 24" fill="none" xmlns="http://www.w3.org/2000/svg">
<path fill-rule="evenodd" clip-rule="evenodd" d="M11.4697,3.46967c0.2929,-0.29289 0.7677,-0.29289 1.0606,0l5,5c0.2929,0.29289 0.2929,0.76777 0,1.06066c-0.2929,0.29289 -0.7677,0.29289 -1.0606,0l-3.7197,-3.71967v10.18934c0,0.4142 -0.3358,0.75 -0.75,0.75c-0.4142,0 -0.75,-0.3358 -0.75,-0.75v-10.18934l-3.71967,3.71967c-0.29289,0.29289 -0.76777,0.29289 -1.06066,0c-0.29289,-0.29289 -0.29289,-0.76777 0,-1.06066zM19,18.25c0.4142,0 0.75,0.3358 0.75,0.75c0,0.4142 -0.3358,0.75 -0.75,0.75h-14c-0.41421,0 -0.75,-0.3358 -0.75,-0.75c0,-0.4142 0.33579,-0.75 0.75,-0.75z" fill="#002B51"/>
</svg>

<svg width="24" height="24" viewBox="0 0 24 24" fill="none" xmlns="http://www.w3.org/2000/svg">
<path fill-rule="evenodd" clip-rule="evenodd" d="M11.4697 3.46967C11.7626 3.17678 12.2374 3.17678 12.5303 3.46967L17.5303 8.46967C17.8232 8.76256 17.8232 9.23744 17.5303 9.53033C17.2374 9.82322 16.7626 9.82322 16.4697 9.53033L12.75 5.81066V16C12.75 16.4142 12.4142 16.75 12 16.75C11.5858 16.75 11.25 16.4142 11.25 16V5.81066L7.53033 9.53033C7.23744 9.82322 6.76256 9.82322 6.46967 9.53033C6.17678 9.23744 6.17678 8.76256 6.46967 8.46967L11.4697 3.46967ZM5 18.25C4.58579 18.25 4.25 18.5858 4.25 19C4.25 19.4142 4.58579 19.75 5 19.75H19C19.4142 19.75 19.75 19.4142 19.75 19C19.75 18.5858 19.4142 18.25 19 18.25H5Z" fill="#002B51"/>
</svg>
